;FLAVOR:Marlin
;TIME:15325
;Filament used: 6.42164m
;Layer height: 0.16
;MINX:61.512
;MINY:67.529
;MINZ:0.2
;MAXX:173.488
;MAXY:167.471
;MAXZ:23.28
;Generated with Cura_SteamEngine 4.13.1
M140 S50
M105
M190 S50
M104 S200
M105
M109 S200
M82 ;absolute extrusion mode
; Ender 3 Custom Start G-code
G92 E0 ; Reset Extruder
G28 ; Home all axes
G1 Z2.0 F3000 ; Move Z Axis up little to prevent scratching of Heat Bed
G1 X0.1 Y20 Z0.3 F5000.0 ; Move to start position
G1 X0.1 Y200.0 Z0.3 F1500.0 E15 ; Draw the first line
G1 X0.4 Y200.0 Z0.3 F5000.0 ; Move to side a little
G1 X0.4 Y20 Z0.3 F1500.0 E30 ; Draw the second line
G92 E0 ; Reset Extruder
G1 Z2.0 F3000 ; Move Z Axis up little to prevent scratching of Heat Bed
G1 X5 Y20 Z0.3 F5000.0 ; Move over to prevent blob squish
G92 E0
G92 E0
G1 F2700 E-5
;LAYER_COUNT:175
;LAYER:0
M107
G0 F6000 X86.642 Y71.393 Z0.2
;TYPE:SKIRT
G1 F2700 E0
G1 F1200 X87.281 Y70.707 E0.03118
G1 X87.976 Y70.077 E0.06238
G1 X88.723 Y69.509 E0.09359
G1 X89.515 Y69.007 E0.12478
G1 X90.347 Y68.574 E0.15598
G1 X91.212 Y68.213 E0.18715
G1 X92.106 Y67.928 E0.21836
G1 X93.02 Y67.72 E0.24954
G1 X93.949 Y67.59 E0.28074
G1 X94.845 Y67.54 E0.31058
G1 X95.693 Y67.529 E0.33879
G1 X139.293 Y67.529 E1.78893
G1 X140.151 Y67.54 E1.81747
G1 X141.087 Y67.593 E1.84865
G1 X142.016 Y67.726 E1.87987
G1 X142.929 Y67.938 E1.91104
G1 X143.822 Y68.226 E1.94225
G1 X144.686 Y68.59 E1.97343
G1 X145.517 Y69.026 E2.00465
G1 X146.307 Y69.531 E2.03583
G1 X147.051 Y70.101 E2.067
G1 X147.744 Y70.733 E2.0982
G1 X148.381 Y71.422 E2.12941
G1 X148.957 Y72.162 E2.1606
G1 X149.44 Y72.903 E2.19002
G1 X149.881 Y73.644 E2.2187
G1 X171.753 Y111.53 E3.6737
G1 X172.09 Y112.133 E3.69668
G1 X172.512 Y112.97 E3.72786
G1 X172.862 Y113.84 E3.75905
G1 X173.136 Y114.737 E3.79024
G1 X173.332 Y115.654 E3.82143
G1 X173.45 Y116.585 E3.85264
G1 X173.488 Y117.522 E3.88383
G1 X173.446 Y118.459 E3.91503
G1 X173.324 Y119.389 E3.94623
G1 X173.124 Y120.305 E3.97741
G1 X172.846 Y121.201 E4.00861
G1 X172.493 Y122.07 E4.03981
G1 X172.091 Y122.864 E4.06941
G1 X171.638 Y123.672 E4.10022
G1 X149.848 Y161.411 E5.54963
G1 X149.447 Y162.085 E5.57571
G1 X148.934 Y162.87 E5.6069
G1 X148.355 Y163.608 E5.6381
G1 X147.716 Y164.295 E5.66931
G1 X147.021 Y164.924 E5.70048
G1 X146.274 Y165.492 E5.7317
G1 X145.482 Y165.994 E5.76288
G1 X144.65 Y166.427 E5.79408
G1 X143.784 Y166.787 E5.82527
G1 X142.891 Y167.073 E5.85646
G1 X141.977 Y167.281 E5.88764
G1 X141.048 Y167.41 E5.91883
G1 X140.154 Y167.46 E5.94861
G1 X139.307 Y167.471 E5.97679
G1 X95.55 Y167.47 E7.43215
G1 X94.849 Y167.46 E7.45547
G1 X93.913 Y167.407 E7.48665
G1 X92.984 Y167.274 E7.51786
G1 X92.071 Y167.062 E7.54904
G1 X91.178 Y166.774 E7.58024
G1 X90.314 Y166.41 E7.61143
G1 X89.483 Y165.974 E7.64264
G1 X88.693 Y165.469 E7.67383
G1 X87.949 Y164.899 E7.705
G1 X87.256 Y164.267 E7.73619
G1 X86.619 Y163.578 E7.7674
G1 X86.043 Y162.838 E7.79859
G1 X85.558 Y162.095 E7.8281
G1 X85.096 Y161.317 E7.8582
G1 X63.247 Y123.47 E9.3117
G1 X62.91 Y122.867 E9.33467
G1 X62.488 Y122.03 E9.36585
G1 X62.138 Y121.16 E9.39704
G1 X61.864 Y120.263 E9.42824
G1 X61.668 Y119.346 E9.45942
G1 X61.55 Y118.415 E9.49064
G1 X61.512 Y117.478 E9.52183
G1 X61.554 Y116.541 E9.55302
G1 X61.676 Y115.611 E9.58422
G1 X61.876 Y114.695 E9.6154
G1 X62.154 Y113.799 E9.64661
G1 X62.507 Y112.93 E9.6778
G1 X62.909 Y112.136 E9.7074
G1 X63.362 Y111.328 E9.73821
G1 X85.17 Y73.556 E11.18887
G1 X85.55 Y72.917 E11.2136
G1 X86.064 Y72.132 E11.24481
G1 X86.642 Y71.393 E11.27601
G0 F6000 X86.968 Y71.627
G1 F1200 X87.598 Y70.956 E11.30662
G1 X88.284 Y70.342 E11.33725
G1 X89.021 Y69.79 E11.36787
G1 X89.802 Y69.304 E11.39847
G1 X90.623 Y68.887 E11.42909
G1 X91.478 Y68.543 E11.45975
G1 X92.358 Y68.275 E11.49034
G1 X93.259 Y68.084 E11.52098
G1 X94.173 Y67.972 E11.5516
G1 X94.851 Y67.94 E11.57418
G1 X95.693 Y67.929 E11.60219
G1 X139.293 Y67.929 E13.05233
G1 X140.145 Y67.94 E13.08067
G1 X141.064 Y67.993 E13.11128
G1 X141.975 Y68.126 E13.14191
G1 X142.871 Y68.337 E13.17252
G1 X143.746 Y68.625 E13.20316
G1 X144.592 Y68.988 E13.23378
G1 X145.403 Y69.423 E13.26439
G1 X146.174 Y69.927 E13.29502
G1 X146.898 Y70.496 E13.32565
G1 X147.57 Y71.125 E13.35627
G1 X148.185 Y71.81 E13.38688
G1 X148.738 Y72.546 E13.4175
G1 X149.097 Y73.107 E13.43966
G1 X149.535 Y73.844 E13.46817
G1 X171.404 Y111.725 E14.92298
G1 X171.741 Y112.328 E14.94596
G1 X172.155 Y113.15 E14.97657
G1 X172.496 Y114.005 E15.00719
G1 X172.761 Y114.887 E15.03782
G1 X172.949 Y115.788 E15.06843
G1 X173.058 Y116.702 E15.09904
G1 X173.087 Y117.623 E15.12969
G1 X173.037 Y118.542 E15.1603
G1 X172.906 Y119.453 E15.19092
G1 X172.697 Y120.35 E15.22155
G1 X172.412 Y121.225 E15.25216
G1 X172.051 Y122.072 E15.28278
G1 X171.742 Y122.669 E15.30514
G1 X171.292 Y123.472 E15.33575
G1 X149.505 Y161.207 E16.785
G1 X149.104 Y161.881 E16.81108
G1 X148.599 Y162.651 E16.84171
G1 X148.029 Y163.374 E16.87233
G1 X147.399 Y164.045 E16.90294
G1 X146.713 Y164.659 E16.93356
G1 X145.976 Y165.211 E16.96419
G1 X145.195 Y165.698 E16.9948
G1 X144.374 Y166.114 E17.02541
G1 X143.519 Y166.458 E17.05607
G1 X142.639 Y166.726 E17.08666
G1 X141.738 Y166.917 E17.1173
G1 X140.824 Y167.028 E17.14792
G1 X140.148 Y167.06 E17.17043
G1 X139.307 Y167.071 E17.1984
G1 X95.556 Y167.07 E18.65357
G1 X94.855 Y167.06 E18.67688
G1 X93.936 Y167.007 E18.7075
G1 X93.025 Y166.874 E18.73812
G1 X92.129 Y166.663 E18.76874
G1 X91.254 Y166.375 E18.79938
G1 X90.408 Y166.012 E18.83
G1 X89.597 Y165.577 E18.86061
G1 X88.826 Y165.073 E18.89124
G1 X88.102 Y164.504 E18.92187
G1 X87.43 Y163.875 E18.95248
G1 X86.815 Y163.19 E18.9831
G1 X86.262 Y162.454 E19.01372
G1 X85.902 Y161.89 E19.03598
G1 X85.442 Y161.117 E19.06589
G1 X63.596 Y123.275 E20.5192
G1 X63.259 Y122.672 E20.54217
G1 X62.845 Y121.85 E20.57279
G1 X62.504 Y120.995 E20.6034
G1 X62.239 Y120.113 E20.63403
G1 X62.051 Y119.212 E20.66465
G1 X61.942 Y118.298 E20.69526
G1 X61.913 Y117.377 E20.72591
G1 X61.963 Y116.458 E20.75652
G1 X62.094 Y115.547 E20.78713
G1 X62.303 Y114.65 E20.81776
G1 X62.588 Y113.775 E20.84837
G1 X62.949 Y112.928 E20.879
G1 X63.258 Y112.331 E20.90135
G1 X63.708 Y111.528 E20.93197
G1 X85.514 Y73.76 E22.38248
G1 X85.894 Y73.121 E22.40721
G1 X86.399 Y72.351 E22.43783
G1 X86.968 Y71.627 E22.46846
G0 F6000 X87.294 Y71.862
G1 F1200 X87.915 Y71.206 E22.4985
G1 X88.591 Y70.608 E22.52852
G1 X89.318 Y70.072 E22.55857
G1 X90.089 Y69.602 E22.5886
G1 X90.899 Y69.202 E22.61864
G1 X91.741 Y68.875 E22.64869
G1 X92.608 Y68.625 E22.6787
G1 X93.495 Y68.451 E22.70876
G1 X94.393 Y68.357 E22.73879
G1 X94.857 Y68.34 E22.75424
G1 X95.693 Y68.329 E22.78204
G1 X139.293 Y68.329 E24.23219
G1 X140.139 Y68.34 E24.26033
G1 X141.041 Y68.393 E24.29038
G1 X141.934 Y68.525 E24.3204
G1 X142.813 Y68.736 E24.35047
G1 X143.669 Y69.024 E24.38051
G1 X144.496 Y69.386 E24.41053
G1 X145.288 Y69.82 E24.44057
G1 X146.038 Y70.323 E24.47061
G1 X146.741 Y70.89 E24.50065
G1 X147.391 Y71.516 E24.53066
G1 X147.984 Y72.198 E24.56072
G1 X148.513 Y72.93 E24.59076
G1 X148.753 Y73.312 E24.60576
G1 X149.188 Y74.044 E24.63409
G1 X171.055 Y111.92 E26.08872
G1 X171.392 Y112.523 E26.1117
G1 X171.797 Y113.33 E26.14173
G1 X172.129 Y114.17 E26.17177
G1 X172.386 Y115.036 E26.20181
G1 X172.565 Y115.921 E26.23184
G1 X172.665 Y116.818 E26.26186
G1 X172.686 Y117.721 E26.29191
G1 X172.626 Y118.622 E26.32194
G1 X172.487 Y119.515 E26.352
G1 X172.269 Y120.391 E26.38202
G1 X171.975 Y121.245 E26.41206
G1 X171.607 Y122.07 E26.44211
G1 X171.393 Y122.474 E26.45731
G1 X171.017 Y123.147 E26.48295
G1 X149.161 Y161.002 E27.9368
G1 X148.76 Y161.676 E27.96289
G1 X148.264 Y162.431 E27.99293
G1 X147.704 Y163.139 E28.02296
G1 X147.083 Y163.795 E28.053
G1 X146.406 Y164.393 E28.08304
G1 X145.679 Y164.929 E28.11309
G1 X144.908 Y165.399 E28.14312
G1 X144.098 Y165.799 E28.17316
G1 X143.256 Y166.125 E28.2032
G1 X142.389 Y166.376 E28.23322
G1 X141.502 Y166.549 E28.26327
G1 X140.604 Y166.643 E28.2933
G1 X140.142 Y166.66 E28.30868
G1 X139.307 Y166.671 E28.33646
G1 X95.562 Y166.67 E29.79142
G1 X94.861 Y166.66 E29.81474
G1 X93.959 Y166.607 E29.84479
G1 X93.066 Y166.475 E29.87481
G1 X92.187 Y166.264 E29.90488
G1 X91.331 Y165.976 E29.93492
G1 X90.504 Y165.614 E29.96495
G1 X89.712 Y165.18 E29.99498
G1 X88.962 Y164.677 E30.02502
G1 X88.259 Y164.11 E30.05506
G1 X87.609 Y163.484 E30.08507
G1 X87.016 Y162.802 E30.11513
G1 X86.487 Y162.07 E30.14517
G1 X86.245 Y161.685 E30.1603
G1 X85.788 Y160.917 E30.19002
G1 X63.945 Y123.08 E31.64313
G1 X63.608 Y122.477 E31.66611
G1 X63.203 Y121.67 E31.69614
G1 X62.871 Y120.83 E31.72618
G1 X62.614 Y119.964 E31.75623
G1 X62.435 Y119.079 E31.78626
G1 X62.335 Y118.182 E31.81628
G1 X62.314 Y117.279 E31.84632
G1 X62.374 Y116.378 E31.87635
G1 X62.513 Y115.485 E31.90641
G1 X62.731 Y114.609 E31.93643
G1 X63.025 Y113.755 E31.96647
G1 X63.393 Y112.93 E31.99652
G1 X63.607 Y112.526 E32.01173
G1 X63.983 Y111.853 E32.03737
G1 X85.858 Y73.964 E33.49251
G1 X86.238 Y73.325 E33.51724
G1 X86.734 Y72.57 E33.54728
G1 X87.294 Y71.862 E33.57731
G1 F2700 E28.57731
;MESH:CUSTOM_BRICKS.obj
G0 F6000 X94.303 Y78.408
G0 X95.241 Y78.949
G0 X73.856 Y117.5
G0 X95.678 Y155.295
G0 X139.423 Y155.471
;TYPE:WALL-INNER
G1 F2700 E33.57731
G1 F1200 X95.577 Y155.471 E35.03563
G1 X73.653 Y117.5 E36.49395
G1 X95.577 Y79.529 E37.95227
G1 X139.423 Y79.529 E39.41059
G1 X161.347 Y117.5 E40.86891
G1 X139.423 Y155.471 E42.32723
G0 F6000 X139.654 Y155.871
G1 F1200 X95.346 Y155.871 E43.80092
G1 X73.192 Y117.5 E45.27458
G1 X95.346 Y79.129 E46.74825
G1 X139.654 Y79.129 E48.22194
G1 X161.808 Y117.5 E49.69561
G1 X139.654 Y155.871 E51.16927
G0 F6000 X139.885 Y156.271
;TYPE:WALL-OUTER
G1 F1200 X95.115 Y156.271 E52.65833
G1 X72.731 Y117.5 E54.14734
G1 X95.115 Y78.729 E55.63635
G1 X139.885 Y78.729 E57.12541
G1 X162.269 Y117.5 E58.61442
G1 X139.885 Y156.271 E60.10343
G0 F6000 X139.614 Y155.86
G0 X139.198 Y155.081
;TYPE:SKIN
G1 F1200 X95.802 Y155.081 E61.54679
G1 X74.104 Y117.5 E62.99012
G1 X95.802 Y79.919 E64.43344
G1 X139.198 Y79.919 E65.8768
G1 X160.896 Y117.5 E67.32013
G1 X139.198 Y155.081 E68.76345
G1 F2700 E63.76345
G0 F6000 X139.439 Y155.222
G0 X96.088 Y155.361
G1 F2700 E68.76345
G0 F6000 X96.088 Y154.92
G1 F1200 X95.626 Y154.458 E68.78518
G0 F6000 X95.246 Y154.677
G0 X95.678 Y155.295
G0 X96.654 Y155.361
G0 X96.654 Y154.92
G1 F1200 X94.854 Y153.119 E68.86987
G0 F6000 X94.473 Y153.339
G0 X93.7 Y152
G0 X94.081 Y151.781
G1 F1200 X97.22 Y154.92 E69.01752
G0 F6000 X97.785 Y154.92
G1 F1200 X93.308 Y150.442 E69.22813
G0 F6000 X92.927 Y150.661
G0 X92.155 Y149.324
G0 X92.536 Y149.104
G1 F1200 X98.351 Y154.92 E69.50167
G0 F6000 X98.917 Y154.92
G1 F1200 X91.763 Y147.766 E69.83818
G0 F6000 X91.382 Y147.985
G0 X90.609 Y146.646
G0 X90.99 Y146.427
G1 F1200 X99.482 Y154.92 E70.23764
G0 F6000 X100.048 Y154.92
G1 F1200 X90.217 Y145.089 E70.70006
G0 F6000 X89.837 Y145.308
G0 X89.064 Y143.97
G0 X89.445 Y143.751
G1 F1200 X100.614 Y154.92 E71.22541
G0 F6000 X101.179 Y154.92
G1 F1200 X88.672 Y142.412 E71.81373
G0 F6000 X88.291 Y142.632
G0 X87.518 Y141.293
G0 X87.899 Y141.074
G1 F1200 X101.745 Y154.92 E72.465
G0 F6000 X102.311 Y154.92
G1 F1200 X87.126 Y139.735 E73.17926
G0 F6000 X86.745 Y139.954
G0 X85.973 Y138.617
G0 X86.354 Y138.397
G1 F1200 X102.876 Y154.92 E73.95642
G0 F6000 X103.442 Y154.92
G1 F1200 X85.581 Y137.059 E74.79655
G0 F6000 X85.2 Y137.278
G0 X84.427 Y135.939
G0 X84.808 Y135.72
G1 F1200 X104.008 Y154.92 E75.69966
G0 F6000 X104.574 Y154.92
G1 F1200 X84.036 Y134.382 E76.66571
G0 F6000 X83.655 Y134.602
G0 X82.882 Y133.263
G0 X83.263 Y133.044
G1 F1200 X105.139 Y154.92 E77.69469
G0 F6000 X105.705 Y154.92
G1 F1200 X82.491 Y131.705 E78.78662
G0 F6000 X82.109 Y131.925
G0 X81.337 Y130.587
G0 X81.718 Y130.367
G1 F1200 X106.271 Y154.92 E79.94152
G0 F6000 X106.836 Y154.92
G1 F1200 X80.945 Y129.028 E81.15938
G0 F6000 X80.564 Y129.248
G0 X79.791 Y127.91
G0 X80.173 Y127.69
G1 F1200 X107.402 Y154.92 E82.44017
G0 F6000 X107.968 Y154.92
G1 F1200 X79.4 Y126.352 E83.78392
G0 F6000 X79.019 Y126.572
G0 X78.246 Y125.233
G0 X78.627 Y125.013
G1 F1200 X108.533 Y154.92 E85.19063
G0 F6000 X109.099 Y154.92
G1 F1200 X77.854 Y123.675 E86.6603
G0 F6000 X77.473 Y123.895
G0 X76.701 Y122.557
G0 X77.082 Y122.337
G1 F1200 X109.665 Y154.92 E88.19291
G0 F6000 X110.23 Y154.92
G1 F1200 X76.309 Y120.998 E89.78847
G0 F6000 X75.927 Y121.218
G0 X75.155 Y119.88
G0 X75.536 Y119.66
G1 F1200 X110.796 Y154.92 E91.44699
G0 F6000 X111.362 Y154.92
G1 F1200 X74.764 Y118.322 E93.16845
G0 F6000 X74.382 Y118.542
G0 X73.856 Y117.5
G0 X73.989 Y117.14
G0 X74.368 Y117.36
G1 F1200 X111.927 Y154.92 E94.93513
G0 F6000 X112.493 Y154.92
G1 F1200 X74.575 Y117.002 E96.71868
G0 F6000 X74.782 Y116.643
G1 F1200 X113.059 Y154.92 E98.51911
G0 F6000 X113.624 Y154.92
G1 F1200 X74.99 Y116.285 E100.33636
G0 F6000 X75.196 Y115.925
G1 F1200 X114.19 Y154.92 E102.17054
G0 F6000 X114.756 Y154.92
G1 F1200 X75.403 Y115.567 E104.02159
G0 F6000 X75.61 Y115.208
G1 F1200 X115.322 Y154.92 E105.88952
G0 F6000 X115.887 Y154.92
G1 F1200 X75.818 Y114.85 E107.77426
G0 F6000 X76.025 Y114.491
G1 F1200 X116.453 Y154.92 E109.6759
G0 F6000 X117.019 Y154.92
G1 F1200 X76.232 Y114.133 E111.59439
G0 F6000 X76.438 Y113.774
G1 F1200 X117.584 Y154.92 E113.52977
G0 F6000 X118.15 Y154.92
G1 F1200 X76.646 Y113.415 E115.48202
G0 F6000 X76.853 Y113.057
G1 F1200 X118.716 Y154.92 E117.45113
G0 F6000 X119.281 Y154.92
G1 F1200 X77.06 Y112.698 E119.43709
G0 F6000 X77.267 Y112.34
G1 F1200 X119.847 Y154.92 E121.43993
G0 F6000 X120.413 Y154.92
G1 F1200 X77.474 Y111.98 E123.45967
G0 F6000 X77.681 Y111.622
G1 F1200 X120.978 Y154.92 E125.49625
G0 F6000 X121.544 Y154.92
G1 F1200 X77.888 Y111.263 E127.54972
G0 F6000 X78.095 Y110.905
G1 F1200 X122.11 Y154.92 E129.62005
G0 F6000 X122.675 Y154.92
G1 F1200 X78.302 Y110.546 E131.70724
G0 F6000 X78.509 Y110.187
G1 F1200 X123.241 Y154.92 E133.81132
G0 F6000 X123.807 Y154.92
G1 F1200 X78.716 Y109.829 E135.93227
G0 F6000 X78.923 Y109.47
G1 F1200 X124.373 Y154.92 E138.07009
G0 F6000 X124.938 Y154.92
G1 F1200 X79.13 Y109.112 E140.22476
G0 F6000 X79.338 Y108.753
G1 F1200 X125.504 Y154.92 E142.39629
G0 F6000 X126.07 Y154.92
G1 F1200 X79.545 Y108.395 E144.58469
G0 F6000 X79.751 Y108.036
G1 F1200 X126.635 Y154.92 E146.78997
G0 F6000 X127.201 Y154.92
G1 F1200 X79.958 Y107.677 E149.01213
G0 F6000 X80.166 Y107.319
G1 F1200 X127.767 Y154.92 E151.25114
G0 F6000 X128.332 Y154.92
G1 F1200 X80.373 Y106.96 E153.507
G0 F6000 X80.58 Y106.602
G1 F1200 X128.898 Y154.92 E155.77974
G0 F6000 X129.464 Y154.92
G1 F1200 X80.786 Y106.242 E158.0694
G0 F6000 X80.994 Y105.884
G1 F1200 X130.029 Y154.92 E160.37588
G0 F6000 X130.595 Y154.92
G1 F1200 X81.201 Y105.525 E162.69924
G0 F6000 X81.408 Y105.167
G1 F1200 X131.161 Y154.92 E165.03947
G0 F6000 X131.726 Y154.92
G1 F1200 X81.615 Y104.808 E167.39656
G0 F6000 X81.822 Y104.449
G1 F1200 X132.292 Y154.92 E169.77054
G0 F6000 X132.858 Y154.92
G1 F1200 X82.029 Y104.091 E172.16138
G0 F6000 X82.236 Y103.732
G1 F1200 X133.423 Y154.92 E174.56909
G0 F6000 X133.989 Y154.92
G1 F1200 X82.443 Y103.374 E176.99365
G0 F6000 X82.65 Y103.015
G1 F1200 X134.555 Y154.92 E179.4351
G0 F6000 X135.121 Y154.92
G1 F1200 X82.858 Y102.657 E181.89339
G0 F6000 X83.064 Y102.297
G1 F1200 X135.686 Y154.92 E184.3686
G0 F6000 X136.252 Y154.92
G1 F1200 X83.271 Y101.939 E186.86066
G0 F6000 X83.478 Y101.58
G1 F1200 X136.818 Y154.92 E189.36961
G0 F6000 X137.383 Y154.92
G1 F1200 X83.686 Y101.222 E191.89538
G0 F6000 X83.893 Y100.863
G1 F1200 X137.949 Y154.92 E194.43803
G0 F6000 X138.515 Y154.92
G1 F1200 X84.099 Y100.504 E196.99759
G0 F6000 X84.306 Y100.146
G1 F1200 X139.08 Y154.92 E199.57399
G0 F6000 X139.304 Y154.577
G1 F1200 X84.514 Y99.787 E202.15114
G0 F6000 X84.721 Y99.429
G1 F1200 X139.511 Y154.219 E204.7283
G0 F6000 X139.718 Y153.86
G1 F1200 X84.928 Y99.07 E207.30545
G0 F6000 X85.134 Y98.711
G1 F1200 X139.925 Y153.502 E209.88265
G0 F6000 X140.132 Y153.143
G1 F1200 X85.342 Y98.352 E212.45983
G0 F6000 X85.549 Y97.994
G1 F1200 X140.339 Y152.784 E215.03698
G0 F6000 X140.546 Y152.426
G1 F1200 X85.756 Y97.635 E217.61416
G0 F6000 X85.963 Y97.277
G1 F1200 X140.753 Y152.067 E220.19131
G0 F6000 X140.961 Y151.709
G1 F1200 X86.17 Y96.918 E222.76851
